!!!!SEGMENT: pl-kk--kk-i-1--003-004-pc0_anonim--missa-sanctus-pc0.krn
!!!cenid: 15xx:666a
!!!COM: Anonim
!!!COM-rismID: pe30004985
!!!CDT:
!!!CNT:
!!!OPR: [Missa]
!!!OTL: Sanctus
!!!OMV: 004
!!!PDT:
!!!AGN:
!!!SMS-siglum: PL-Kk
!!!SMS-shelfmark: Kk.I.1
!!!SMS-shelfwork: 003-004 M
!!!SMS-variant:
!!!SMS-altvar:
!!!NIFC-rismSourceID: 300257957
!!!NIFC-islandoraID: pl-kk:1
!!!URL-pdf-islandora: https://repozytorium.nifc.pl/islandora/object/pl-kk%3A1/datastream/PDF/view
!!!URL-scan: https://polish.musicsources.pl/pl/lokalizacje/galeria/rekopisy/5736 @EN{Scan on Polish Music Sources Website} @PL{Skany w portalu Dziedzictwo Muzyki Polskiej w otwartym dostępie}
!!!ONB-nifc: UWAGA: Cantus (s. 12r-21r, skan 0014-0023), Altus (s. 12v-20v, skan 0205-0213), Tenor (s. 12v-21v, skan 0401-0410), Bassus (s. 12v-20v, skan 0574-0582). Części Mszy: 1. Kyrie, 2. Et in terra, 3. Patrem, 4. Sanctus, 5. Agnus Dei
!!!AIN: 1 alto 1 bass 1 soprn 1 tenor
!!!key: F
**kern	**text	**kern	**text	**kern	**text	**kern	**text
*part4	*part4	*part3	*part3	*part2	*part2	*part1	*part1
*staff4	*staff4	*staff3	*staff3	*staff2	*staff2	*staff1	*staff1
*I"BASSVS	*	*I"TENOR	*	*I"ALTVS	*	*I"CANTVS	*
*I'B	*	*I'T	*	*I'A	*	*I'S	*
*Ibass	*	*Itenor	*	*Ialto	*	*Isoprn	*
*ICvox	*	*ICvox	*	*ICvox	*	*ICvox	*
*clefF4	*	*clefC4	*	*clefC3	*	*clefC3	*
*k[b-]	*	*k[b-]	*	*k[b-]	*	*k[b-]	*
*F:	*	*F:	*	*F:	*	*F:	*
*M2/1	*	*M2/1	*	*M2/1	*	*M2/1	*
*met(C|)	*	*met(C|)	*	*met(C|)	*	*met(C|)	*
*all\right	*	*all\right	*	*all\right	*	*all\right	*
=1-	=1-	=1-	=1-	=1-	=1-	=1-	=1-
*xywh-#580:1051,1233,4319,898	*	*xywh-#408:1030,631,4394,859	*	*xywh-#211:1107,469,4403,936	*	*xywh-#21:5517,2148,4515,861	*
!	!	!	!	!LO:TX:t=P:problem=kreska pseudotaktowa	!	!	!
0r	.	00r	.	1r	.	1.F	SAn-
.	.	.	.	1.F	SAn-	.	.
!	!	!	!	!	!	!LO:TX:t=P:problem=kreska pseudotaktowa	!
.	.	.	.	.	.	2G/	-ctus,
=2-	=2-	=2-	=2-	=2-	=2-	=2-	=2-
!LO:TX:t=P:problem=kreska pseudotaktowa	!	!	!	!	!	!	!
1r	.	.	.	.	.	2A/	.
.	.	.	.	2G/	-ctus,	2B-/	.
!	!	!	!	!	!	!LO:TX:t=P:problem=kreska pseudotaktowa	!
1.F	SAn-	.	.	2.A/	.	1c	.
!	!	!	!	!LO:TX:t=P:problem=kreska pseudotaktowa	!	!	!
.	.	.	.	4G/	.	.	.
=3-	=3-	=3-	=3-	=3-	=3-	=3-	=3-
*2\right	*	*	*	*	*	*2\right	*
!	!	!LO:TX:t=P:problem=kreska pseudotaktowa	!	!	!	!	!
.	.	0F	SAn-	4A/	.	2d\	.
.	.	.	.	4B-/	.	.	.
2E\	.	.	.	1c	.	2e\	.
!LO:TX:t=P:problem=kreska pseudotaktowa	!	!	!	!	!	!	!
1D	-ctus,	.	.	.	.	1f	.
.	.	.	.	2B-/	.	.	.
=4-	=4-	=4-	=4-	=4-	=4-	=4-	=4-
!	!	!	!	!LO:TX:t=P:problem=kreska pseudotaktowa	!	!	!
0C	.	1.G	-ctus	0c	.	1.e	.
.	.	2A/	.	.	.	4d\	.
!	!	!	!	!	!	!LO:TX:t=P:problem=kreska pseudotaktowa	!
.	.	.	.	.	.	4c\	.
=5-	=5-	=5-	=5-	=5-	=5-	=5-	=5-
*	*	*2\right	*	*	*	*	*
1.BB-	san-	2.B-\	.	0F	San-	2.d\	.
!	!	!LO:TX:t=P:problem=kreska pseudotaktowa	!	!	!	!LO:TX:t=P:problem=kreska pseudotaktowa	!
.	.	4c\	.	.	.	4c/	.
.	.	2d\	.	.	.	2B-/	.
!LO:TX:t=P:problem=kreska pseudotaktowa	!	!	!	!	!	!	!
2AA/	.	2.c\	.	.	.	2.f\	.
=6-	=6-	=6-	=6-	=6-	=6-	=6-	=6-
*	*	*	*	*lig	*	*	*
1GG	-ctus,	.	.	1G	.	.	.
.	.	4B-\	.	.	.	4e\	San-
!	!	!LO:TX:t=P:problem=kreska pseudotaktowa	!	!	!	!LO:TX:t=P:problem=kreska pseudotaktowa	!
.	.	2B-\	.	.	.	2e\	-ctus,
!	!	!LO:TX:t=P:problem=kreska pseudotaktowa	!	!	!	!	!
*	*	*	*	*col	*	*	*
*	*	*	*	*	*	*custos:e	*
2.FF/	.	1c	.	2.A/	.	1f	.
*	*	*	*	*Xlig	*	*	*
!LO:TX:t=P:problem=kreska pseudotaktowa	!	!	!	!	!	!	!
4GG/	.	.	.	4B-/	-ctus,	.	.
*	*	*	*	*Xcol	*	*	*
!	!	!	!	!	!	!LO:LB:g=original	!
=7-	=7-	=7-	=7-	=7-	=7-	=7-	=7-
*	*	*	*	*	*	*xywh-#21:5668,2807,4261,889	*
*	*	*	*	*lig	*	*	*
!	!	!	!	!	!	!LO:TX:t=P:problem=kreska pseudotaktowa	!
4AA/	.	2r	.	1c	.	1e	.
4BB-/	.	.	.	.	.	.	.
1C	.	2.G/	san-	.	.	.	.
.	.	.	.	1d	.	2r	.
.	.	4A/	.	.	.	.	.
!	!	!LO:TX:t=P:problem=kreska pseudotaktowa	!	!	!	!	!
2BB-/	.	2B-/	-ctus,	.	.	1f\	do-
*	*	*	*	*Xlig	*	*	*
=8-	=8-	=8-	=8-	=8-	=8-	=8-	=8-
*lig	*	*	*	*	*	*	*
1C	.	2A/	.	1c	.	.	.
!	!	!	!	!	!	!LO:TX:t=P:problem=kreska pseudotaktowa	!
.	.	2.G/	.	.	.	2e\	-mi-
*	*	*	*	*custos:f	*	*	*
!	!	!	!	!LO:TX:t=P:problem=kreska pseudotaktowa	!	!	!
1D	.	.	.	2r	.	2d\	.
.	.	4F/	.	.	.	.	.
*	*	*	*	*2\right	*	*	*
*	*	*custos:G	*	*	*	*	*
*	*	*	*	*xywh-#211:1187,1280,4363,856	*	*	*
!	!	!LO:TX:t=P:problem=kreska pseudotaktowa	!	!LO:LB:g=original	!	!	!
.	.	2F/	.	2.f\	do-	2B-/	-nus
*Xlig	*	*	*	*	*	*	*
!	!	!LO:LB:g=original	!	!	!	!	!
=9-	=9-	=9-	=9-	=9-	=9-	=9-	=9-
*	*	*xywh-#408:1156,1387,4285,859	*	*	*	*	*
1C	.	1G	do-	.	.	2.c/	de-
.	.	.	.	4e\	.	.	.
!	!	!	!	!LO:TX:t=P:problem=kreska pseudotaktowa	!	!	!
.	.	.	.	2e\	-mi-	.	.
!	!	!	!	!	!	!LO:TX:t=P:problem=kreska pseudotaktowa	!
.	.	.	.	.	.	4B-/	-us
*custos:F	*	*	*	*	*	*	*
!LO:TX:t=P:problem=kreska pseudotaktowa	!	!	!	!	!	!	!
2r	.	2.F/	-mi-	2d\	-nus	4A/	.
.	.	.	.	.	.	4G/	ſab-
*xywh-#580:1113,2013,4286,917	*	*	*	*	*	*	*
!LO:LB:g=original	!	!	!	!	!	!	!
1F\	do-	.	.	2c/	.	2.A/	-ba-
!	!	!LO:TX:t=P:problem=kreska pseudotaktowa	!	!	!	!	!
.	.	4E/	.	.	.	.	.
=10-	=10-	=10-	=10-	=10-	=10-	=10-	=10-
.	.	2D/	-nus	2d\	de-	.	.
.	.	.	.	.	.	4B-/	-oth,
!LO:TX:t=P:problem=kreska pseudotaktowa	!	!	!	!LO:TX:t=P:problem=kreska pseudotaktowa	!	!LO:TX:t=P:problem=kreska pseudotaktowa	!
2E\	-mi-	2C/	.	2e\	-us	2c/	.
2D/	.	2D/	.	2f\	.	2F/	.
!	!	!LO:TX:t=P::problem=kreska pseudotaktowa&colon;między nutą a kropką	!	!	!	!	!
2.C/	-nus	2.E/	.	2.e\	ſab-	1G/	.
=11-	=11-	=11-	=11-	=11-	=11-	=11-	=11-
.	.	.	.	.	.	.	.
4D/	de-	4F/	.	4d\	-ba-	.	.
*	*	*	*	*	*	*	*ij
!	!	!	!	!LO:TX:t=P:problem=kreska pseudotaktowa	!	!LO:TX:t=P::problem=kreska pseudotaktowa&colon;między nutą a kropką	!
2E\	-us	2G/	.	2.c/	-oth,	2.g\	do-
1D	.	2A/	.	.	.	.	.
.	.	.	.	4B-/	.	4f\	-mi-
!	!	!LO:TX:t=P:problem=kreska pseudotaktowa	!	!	!	!	!
.	.	2F/	ſab-	2B-/	.	2.f\	-nus
=12-	=12-	=12-	=12-	=12-	=12-	=12-	=12-
!LO:TX:t=P:problem=kreska pseudotaktowa	!	!	!	!LO:TX:t=P:problem=kreska pseudotaktowa	!	!	!
1C	.	1G	-ba-	1c	.	.	.
.	.	.	.	.	.	4e\	de-
!	!	!	!	!	!	!LO:TX:t=P:problem=kreska pseudotaktowa	!
.	.	.	.	.	.	2e\	-us
*	*	*	*	*	*	*custos:d	*
!	!	!	!	!	!	!LO:TX:t=P:problem=kreska pseudotaktowa	!
1FF	.	2F/	-oth,	2r	.	1f	ſab-
*	*	*	*	*	*ij	*	*
.	.	2A/	.	2.c/	do-	.	.
!	!	!	!	!	!	!LO:PB:g=original	!
=13-	=13-	=13-	=13-	=13-	=13-	=13-	=13-
*	*	*	*	*	*	*xywh-#22:1015,626,4206,898	*
!LO:TX:t=P:problem=kreska pseudotaktowa	!	!	!	!	!	!	!
1GG	.	1G	.	.	.	1d	-ba-
.	.	.	.	4B-/	.	.	.
!	!	!	!	!LO:TX:t=P:problem=kreska pseudotaktowa	!	!	!
.	.	.	.	2B-/	-mi-	.	.
!	!	!LO:TX:t=P:problem=kreska pseudotaktowa	!	!	!	!LO:TX:t=P:problem=kreska pseudotaktowa	!
2r	.	1C	.	2A/	.	1c	-oth
1C/	do-	.	.	2.G/	-nus	.	.
=14-	=14-	=14-	=14-	=14-	=14-	=14-	=14-
.	.	2r	.	.	.	1r	.
.	.	.	.	4A/	.	.	.
*	*	*	*	*custos:c	*	*	*
!LO:TX:t=P:problem=kreska pseudotaktowa	!	!	!	!LO:TX:t=P:problem=kreska pseudotaktowa	!	!	!
2BB-/	-mi-	1F	do-	2B-/	de-	.	.
*	*	*	*	*xywh-#211:1250,2023,4197,828	*	*	*
2AA/	.	.	.	4c/	.	2r	.
.	.	.	.	4A/	.	.	.
!	!	!LO:TX:t=P:problem=kreska pseudotaktowa	!	!	!	!LO:TX:t=P:problem=kreska pseudotaktowa	!
2.GG/	-nus	2E-X/	-mi-	4B-/	.	1.G/	ſab-
!	!	!	!	!LO:TX:t=P:problem=kreska pseudotaktowa	!	!	!
.	.	.	.	4c/	.	.	.
=15-	=15-	=15-	=15-	=15-	=15-	=15-	=15-
.	.	1D	-nus	2d\	.	.	.
4AA/	de-	.	.	.	.	.	.
!LO:TX:t=P:problem=kreska pseudotaktowa	!	!	!	!	!	!	!
2BB-/	-us	.	.	2B-/	-us	.	.
2AA/	ſab-	2C/	.	2c/	ſab-	4A/	.
.	.	.	.	.	.	4B-/	.
!	!	!	!	!LO:TX:t=P:problem=kreska pseudotaktowa	!	!	!
2FF/	-ba-	2.F/	de-	2A/	.	4c/	.
!	!	!	!	!	!	!LO:TX:t=P:problem=kreska pseudotaktowa	!
.	.	.	.	.	.	4A/	.
=16-	=16-	=16-	=16-	=16-	=16-	=16-	=16-
1GG	-oth,	.	.	1G	-ba-	1B-	-ba-
*	*	*custos:E	*	*	*	*	*
.	.	4Eny/	-us	.	.	.	.
*	*	*xywh-#408:1081,2120,4468,847	*	*	*	*	*
!	!	!LO:LB:g=original	!	!	!	!	!
!	!	!LO:TX:t=P:problem=kreska pseudotaktowa	!	!	!	!	!
.	.	2E/	.	.	.	.	.
!	!	!	!	!LO:TX:t=P:problem=kreska pseudotaktowa	!	!	!
1FF	.	2F/	.	0c	-oth	2A/	-oth
*	*	*	*	*	*Xij	*	*Xij
.	.	1A\	.	.	.	1f\	ſab-
=17-	=17-	=17-	=17-	=17-	=17-	=17-	=17-
*lig	*	*	*	*	*	*	*
1C	.	.	.	.	.	.	.
!	!	!	!	!	!	!LO:TX:t=P:problem=kreska pseudotaktowa	!
.	.	2.G/	ſab-	.	.	2e\	-ba-
*custos:C	*	*	*	*	*	*	*
!LO:TX:t=P:problem=kreska pseudotaktowa	!	!	!	!	!	!	!
1D	.	.	.	2r	.	2d\	-oth,
.	.	4F/	-ba-	.	.	.	.
!	!	!LO:TX:t=P:problem=kreska pseudotaktowa	!	!	!	!	!
.	.	2F/	-oth,	1f\	ſab-	2B-/	.
*Xlig	*	*	*	*	*	*	*
!LO:LB:g=original	!	!	!	!	!	!	!
=18-	=18-	=18-	=18-	=18-	=18-	=18-	=18-
*xywh-#580:1075,2721,4338,945	*	*	*	*	*	*	*
!LO:TX:t=P:problem=kreska pseudotaktowa	!	!	!	!	!	!	!
1C	.	1G	.	.	.	2.c/	.
!	!	!	!	!LO:TX:t=P:problem=kreska pseudotaktowa	!	!	!
.	.	.	.	2e\	.	.	.
!	!	!	!	!	!	!LO:TX:t=P:problem=kreska pseudotaktowa	!
.	.	.	.	.	.	4B-/	.
2r	.	2.F/	do-	2d\	-ba-	4A/	.
.	.	.	.	.	.	4G/	.
1F\	do-	.	.	2c/	.	2.A/	.
!	!	!LO:TX:t=P:problem=kreska pseudotaktowa	!	!	!	!	!
.	.	4E/	.	.	.	.	.
=19-	=19-	=19-	=19-	=19-	=19-	=19-	=19-
.	.	2D/	-mi-	2d\	-oth,	.	.
.	.	.	.	.	.	4B-/	.
!LO:TX:t=P:problem=kreska pseudotaktowa	!	!	!	!LO:TX:t=P:problem=kreska pseudotaktowa	!	!LO:TX:t=P:problem=kreska pseudotaktowa	!
2E\	-mi-	2C/	-nus	2e\	.	2c/	.
*	*	*	*	*	*	*xywh-#22:1037,1328,4183,960	*
!	!	!	!	!	!	!LO:LB:g=original	!
2D/	-nus	2D/	.	2f\	.	2F/	.
!	!	!	!	!	!	!LO:TX:t=P:problem=kreska pseudotaktowa	!
2.C/	.	2.E/	de-	1e\	.	2G/	.
=20-	=20-	=20-	=20-	=20-	=20-	=20-	=20-
.	.	.	.	.	.	1g	ſab-
4D/	de-	4F/	-us	.	.	.	.
!LO:TX:t=P:problem=kreska pseudotaktowa	!	!LO:TX:t=P:problem=kreska pseudotaktowa	!	!LO:TX:t=P:problem=kreska pseudotaktowa	!	!	!
2E\	-us	2G/	ſab-	2c/	.	.	.
2D/	.	2A/	-ba-	1d	.	2.f\	-ba-
2BB-/	ſab-	2B-\	-oth,	.	.	.	.
.	.	.	.	.	.	8e\L	-oth;
!	!	!	!	!	!	!LO:TX:t=P:problem=kreska pseudotaktowa	!
.	.	.	.	.	.	8d\J	.
=21-	=21-	=21-	=21-	=21-	=21-	=21-	=21-
!	!	!	!	!LO:N:vis=00	!	!	!
2.C/	-ba-	2G/	.	0c	.	2e\	.
.	.	1A	.	.	.	4c\	.
!LO:TX:t=P:problem=kreska pseudotaktowa	!	!	!	!	!	!LO:TX:t=P:problem=kreska pseudotaktowa	!
4BB-/	-oth,	.	.	.	.	4d\	.
2AA/	.	.	.	.	.	4e\	.
.	.	.	.	.	.	4c\	.
*	*	*	*	*	*	*	*ij
2FF/	.	2A/	.	.	.	2.f\	ſab-
=22-	=22-	=22-	=22-	=22-	=22-	=22-	=22-
1C	.	1G	.	0cl;<	.	.	.
.	.	.	.	.	.	4e\	.
.	.	.	.	.	.	2e\	-ba-
*custos:F	*	*custos:A	*	*	*	*	*
1FFl;	.	1Fl;	.	.	.	1fl;<	-oth
*	*	*	*	*	*	*	*Xij
!LO:LB:g=original	!	!	!	!LO:LB:g=original	!	!	!
=23||	=23||	=23||	=23||	=23||	=23||	=23||	=23||
*xywh-#580:5697,668,4327,895	*	*xywh-#408:775,3497,4817,587	*	*xywh-#211:873,3091,4803,1039	*	*	*
*	*	*clefC3	*	*	*	*	*
*M2/1	*	*M2/1	*	*M2/1	*	*M2/1	*
*met(C|)	*	*met(C|)	*	*met(C|)	*	*met(C|)	*
!LO:TX:t=P:problem=kreska pseudotaktowa	!	!LO:TX:a:i:t=Vide\ninfra altu	!	!LO:TX:a:i:t=Vide infra\n1697 5/ 9bris.	!	!	!
1r	.	1.A	.	1.A	Ple-	1.c	Ple-
1.F	Ple-	.	.	.	.	.	.
!	!	!LO:TX:t=P:problem=kreska pseudotaktowa	!	!LO:TX:t=P:problem=kreska pseudotaktowa	!	!LO:TX:t=P:problem=kreska pseudotaktowa	!
.	.	2A/	.	2A/	-ni	2c/	-ni
=24-	=24-	=24-	=24-	=24-	=24-	=24-	=24-
.	.	2B-/	.	2B-/	ſunt	2d/	ſunt
!LO:TX:t=P:problem=kreska pseudotaktowa	!	!LO:TX:t=P:problem=kreska pseudotaktowa	!	!	!	!	!
2F\	-ni	2A/	.	2A/	.	2c/	cae-
2G\	ſunt	2G/	.	2G/	cae-	2B-/	-l[i]
*	*	*	*	*	*	*xywh-#22:1037,2074,4222,937	*
!	!	!	!	!LO:TX:t=P:problem=kreska pseudotaktowa	!	!LO:LB:g=original	!
2F\	.	2A/	.	2A/	-li	2.c/	et
=25-	=25-	=25-	=25-	=25-	=25-	=25-	=25-
2E\	cae-	2G/	.	2G/	et	.	.
.	.	.	.	.	.	4B-/	.
2.F\	-li	4c\	.	4c\	ter-	4A/	.
!	!	!LO:TX:t=P:problem=kreska pseudotaktowa	!	!	!	!LO:TX:t=P:problem=kreska pseudotaktowa	!
.	.	4B-\	.	4B-\	.	4G/	.
.	.	4A\	.	4A/	.	1F	.
4E\	.	4G/	.	4G/	.	.	.
4D/	.	4F/	.	4F/	.	.	.
!LO:TX:t=P:problem=kreska pseudotaktowa	!	!	!	!LO:TX:t=P:problem=kreska pseudotaktowa	!	!	!
4C/	.	4A/	.	4A/	.	.	.
=26-	=26-	=26-	=26-	=26-	=26-	=26-	=26-
1BB-	.	4B-\	.	4B-\	.	2.f\	.
.	.	4c\	.	4c\	.	.	.
.	.	4d\	.	4d\	.	.	.
!	!	!LO:TX:t=P:problem=kreska pseudotaktowa	!	!LO:TX:t=P:problem=kreska pseudotaktowa	!	!LO:TX:t=P:problem=kreska pseudotaktowa	!
.	.	4e\	.	4e\	.	4e\	et
2.B-\	.	4f\	.	4f\	.	4d\	ter-
.	.	4e\	.	4e\	.	4c\	-ra,
.	.	4d\	.	4d\	.	1B-/	.
!LO:TX:t=P:problem=kreska pseudotaktowa	!	!	!	!	!	!	!
4A\	et	4f\	.	4f\	.	.	.
=27-	=27-	=27-	=27-	=27-	=27-	=27-	=27-
2G\	ter-	4e\	.	4e\	.	.	.
.	.	4d\	.	4d\	.	.	.
!	!	!	!	!	!	!LO:TX:t=P:problem=kreska pseudotaktowa	!
2.F\	-ra,	4e\	.	4e\	.	2A/	.
!	!	!LO:TX:t=P:problem=kreska pseudotaktowa	!	!LO:TX:t=P:problem=kreska pseudotaktowa	!	!	!
.	.	4f\	.	4f\	.	.	.
.	.	4g\	.	4g\	.	1G	.
4E\	.	4c\	.	4c\	.	.	.
!LO:TX:t=P:problem=kreska pseudotaktowa	!	!	!	!	!	!	!
2E\	.	4d\	.	4d\	.	.	.
.	.	4e\	.	4e\	.	.	.
=28-	=28-	=28-	=28-	=28-	=28-	=28-	=28-
*	*	*2\left	*	*2\left	*	*	*
!	!	!	!	!	!	!LO:TX:t=P:problem=kreska pseudotaktowa	!
1D	.	2f\	.	2f\	.	1F	.
!	!	!LO:TX:t=P:problem=kreska pseudotaktowa	!	!LO:TX:t=P:problem=kreska pseudotaktowa	!	!	!
.	.	2d\	.	2d\	.	.	.
!LO:TX:t=P:problem=kreska pseudotaktowa	!	!	!	!	!	!	!
1C	.	2e\	.	2e\	-ra	2r	.
.	.	1g\	.	1g\	glo-	2G/	glo-
=29-	=29-	=29-	=29-	=29-	=29-	=29-	=29-
2r	.	.	.	.	.	1.c	-ri-
*custos:F	*	*	*	*	*	*	*
2C/	glo-	1a	.	1a	.	.	.
*xywh-#580:5640,1353,4367,912	*	*	*	*	*	*	*
!LO:LB:g=original	!	!	!	!	!	!	!
1.F	-ria	.	.	.	.	.	.
!	!	!LO:TX:t=P:problem=kreska pseudotaktowa	!	!LO:TX:t=P::problem=kreska pseudotaktowa&colon;między nutą a kropką	!	!LO:TX:t=P:problem=kreska pseudotaktowa	!
.	.	2.f\	.	2.f\	.	2d/	-a
=30-	=30-	=30-	=30-	=30-	=30-	=30-	=30-
.	.	.	.	.	.	2c/	tu-
.	.	4e\	.	4e\	.	.	.
!LO:TX:t=P:problem=kreska pseudotaktowa	!	!	!	!	!	!	!
2G\	tu-	4d\	.	4d\	.	2B-/	-a,
!	!	!LO:TX:t=P:problem=kreska pseudotaktowa	!	!	!	!	!
.	.	4e\	.	4e\	.	.	.
2F\	-a,	2f\	.	2f\	.	2A/	.
!	!	!	!	!LO:TX:t=P:problem=kreska pseudotaktowa	!	!LO:TX:t=P:problem=kreska pseudotaktowa	!
2E\	.	2g\	.	2g\	-ri-	2G/	.
=31-	=31-	=31-	=31-	=31-	=31-	=31-	=31-
2D/	.	2a\	.	2a\	-a	2F/	.
*	*	*	*	*	*	*xywh-#22:1043,2805,4222,758	*
!LO:TX:t=P:problem=kreska pseudotaktowa	!	!	!	!LO:N:vis=2	!	!LO:LB:g=original	!
2C/	.	2.e\	.	2.e\	tu-	2.c/	.
2.F\	.	.	.	.	.	.	.
.	.	4d\	.	4d\yy	.	4B-/	.
!	!	!LO:TX:t=P:problem=kreska pseudotaktowa	!	!LO:TX:t=P:problem=kreska pseudotaktowa	!	!	!
.	.	2c/	.	2c/	.	4A/	.
!	!	!	!	!	!	!LO:TX:t=P:problem=kreska pseudotaktowa	!
4E\	.	.	.	.	.	4G/	.
=32-	=32-	=32-	=32-	=32-	=32-	=32-	=32-
*	*	*	*	*xywh-#211:5631,3393,4557,765	*	*	*
2D/	.	2d/	.	2d/	.	2B-/	.
*	*	*xywh-#408:5592,3478,4683,572	*	*	*	*	*
2C/	.	2.f\	.	2.f\	.	2.A/	.
1BB-	.	.	.	.	.	.	.
.	.	4e\	.	4e\	.	4G/	.
!	!	!	!	!	!	!LO:TX:t=P:problem=kreska pseudotaktowa	!
.	.	4f\	.	4f\	.	2G/	.
!	!	!	!	!LO:TX:t=P:problem=kreska pseudotaktowa	!	!	!
.	.	4g\	.	4g\	.	.	.
=33-	=33-	=33-	=33-	=33-	=33-	=33-	=33-
!LO:TX:t=P:problem=kreska pseudotaktowa	!	!	!	!	!	!	!
1AA	.	2f\	.	2f\	.	0A	.
!	!	!LO:TX:t=P:problem=kreska pseudotaktowa	!	!LO:TX:t=P:problem=kreska pseudotaktowa	!	!	!
.	.	2c/	.	2c/	.	.	.
2r	.	2d/	.	2d\	-a	.	.
2AA/	glo-	1f\	.	1f\	glo-	.	.
=34-	=34-	=34-	=34-	=34-	=34-	=34-	=34-
1.D	-ri-	.	.	.	.	2r	.
!	!	!LO:TX:t=P:problem=kreska pseudotaktowa	!	!LO:TX:t=P:problem=kreska pseudotaktowa	!	!LO:TX:t=P:problem=kreska pseudotaktowa	!
.	.	2a\	.	2a\	.	2F/	.
.	.	2d\	.	2d\	-ri-	1.A	.
!LO:TX:t=P:problem=kreska pseudotaktowa	!	!	!	!	!	!	!
2C/	-a	2.e\	.	2.e\	-a	.	.
=35-	=35-	=35-	=35-	=35-	=35-	=35-	=35-
2D/	tu-	.	.	.	.	.	.
.	.	4f\	.	4f\	.	.	.
!	!	!LO:TX:t=P:problem=kreska pseudotaktowa	!	!LO:TX:t=P:problem=kreska pseudotaktowa	!	!	!
2E\	-a,	2g\	.	2g\	.	2G/	.
2.F\	.	2f\	.	2f\	.	4A/	.
.	.	.	.	.	.	4G/	.
!	!	!LO:TX:t=P:problem=kreska pseudotaktowa	!	!LO:TX:t=P:problem=kreska pseudotaktowa	!	!	!
.	.	2a\	.	2a\	.	4A/	.
!LO:TX:t=P:problem=kreska pseudotaktowa	!	!	!	!	!	!LO:TX:t=P:problem=kreska pseudotaktowa	!
4D\	.	.	.	.	.	4B-/	.
=36-	=36-	=36-	=36-	=36-	=36-	=36-	=36-
2E\	.	2g\	.	2g\	tu-	2.c/	.
*custos:G	*	*	*	*	*	*	*
2F\	.	4f\	.	4f\	.	.	.
!	!	!LO:TX:t=P:problem=kreska pseudotaktowa	!	!LO:TX:t=P:problem=kreska pseudotaktowa	!	!	!
.	.	4e\	.	4e\	.	4A/	.
*xywh-#580:5691,2117,4259,861	*	*	*	*	*	*	*
!LO:LB:g=original	!	!	!	!	!	!	!
2G\	.	2d/	.	2d/	.	2B-/	.
!LO:TX:t=P:problem=kreska pseudotaktowa	!	!LO:N:vis=1	!	!LO:N:vis=1	!	!	!
2A\	.	2c\	.	2c\	-a	2c/	.
=37-	=37-	=37-	=37-	=37-	=37-	=37-	=37-
!	!	!	!	!	!	!LO:TX:t=P:problem=kreska pseudotaktowa	!
2D/	.	4B-/	.	4B-/	glo-	1d	.
!	!	!LO:TX:t=P:problem=kreska pseudotaktowa	!	!LO:TX:t=P:problem=kreska pseudotaktowa	!	!	!
.	.	4A/	.	4A/	.	.	.
2.F\	.	4B-/	.	4B-/	.	.	.
.	.	4c/	.	4c/	.	.	.
*	*	*	*	*	*	*xywh-#22:5524,637,4352,932	*
!	!	!	!	!	!	!LO:PB:g=original	!
.	.	2.d/	.	2.d\	.	2c/	-glo-
4E\	.	.	.	.	.	.	.
4D/	.	.	.	.	.	2.f\	-ri-
!LO:TX:t=P:problem=kreska pseudotaktowa	!	!	!	!	!	!	!
4C/	.	4c\	.	4c\	.	.	.
=38-	=38-	=38-	=38-	=38-	=38-	=38-	=38-
2BB-/	.	4B-/	.	4B-/	.	.	.
!	!	!LO:TX:t=P:problem=kreska pseudotaktowa	!	!LO:TX:t=P:problem=kreska pseudotaktowa	!	!	!
.	.	4G/	.	4G/	.	4e\	-a
2.B-\	.	4g\	.	4g\	.	4d\	.
!	!	!	!	!	!	!LO:TX:t=P:problem=kreska pseudotaktowa	!
.	.	4f\	.	4f\	.	4c\	.
.	.	4e\	.	4e\	.	2d\	.
!	!	!LO:TX:t=P:problem=kreska pseudotaktowa	!	!LO:TX:t=P:problem=kreska pseudotaktowa	!	!	!
4A\	tu-	4f\	.	4f\	.	.	.
4G\	-a;	2.d\	.	2.d\	.	2.B-/	.
!LO:TX:t=P:problem=kreska pseudotaktowa	!	!	!	!	!	!	!
4F\	.	.	.	.	.	.	.
=39-	=39-	=39-	=39-	=39-	=39-	=39-	=39-
2G\	.	.	.	.	.	.	.
!	!	!	!	!LO:TX:t=P:problem=kreska pseudotaktowa	!	!	!
.	.	4c/	.	4c\	.	4A/	tu-
2.F\	.	4B-/	.	4B-\	-ri-	4G/	-a,
.	.	4c/	.	4c\	-a	4F/	.
.	.	4d\	.	4d\	.	1G	.
!	!	!LO:TX:t=P:problem=kreska pseudotaktowa	!	!LO:TX:t=P:problem=kreska pseudotaktowa	!	!	!
4E\	.	4c\	.	4c\	.	.	.
!	!	!LO:N:vis=2	!	!LO:N:vis=2	!	!	!
2E\	.	4B-/	.	4B-/	tu-	.	.
!	!	!LO:N:vis=2	!	!LO:N:vis=2	!	!	!
.	.	4B-/	.	4B-/	-a	.	.
=40-	=40-	=40-	=40-	=40-	=40-	=40-	=40-
*custos:F	*	*	*	*	*	*	*
0Fl;<	.	0Al;;	.	0Al;;	.	0Fl;	.
!LO:LB:g=original	!	!	!	!LO:LB:g=original	!	!	!
=41||	=41||	=41||	=41||	=41||	=41||	=41||	=41||
*xywh-#580:5697,2795,4236,918	*	*xywh-#408:851,2841,4635,847	*	*	*	*	*
*	*	*clefC4	*	*	*	*	*
*M3/1	*	*M3/1	*	*M3/1	*	*M3/1	*
*met(C|3)	*	*met(C|3)	*	*met(C|3)	*	*met(C|3)	*
*	*	*	*	*xywh-#211:1087,2762,4470,846	*	*	*
!LO:TX:t=P:problem=kreska pseudotaktowa	!	!	!	!LO:TX:t=P:problem=kreska pseudotaktowa	!	!	!
0.r	.	0c	O-	00.r	.	00.r	.
!	!	!LO:TX:t=P:problem=kreska pseudotaktowa	!	!	!	!	!
.	.	1B-	-ſan-	.	.	.	.
=42-	=42-	=42-	=42-	=42-	=42-	=42-	=42-
0F	O-	0A	-na	.	.	.	.
!LO:TX:t=P:problem=kreska pseudotaktowa	!	!LO:TX:t=P:problem=kreska pseudotaktowa	!	!	!	!	!
1E	-ſan-	1G	in	.	.	.	.
=43-	=43-	=43-	=43-	=43-	=43-	=43-	=43-
!	!	!	!	!	!	!LO:TX:t=P:problem=kreska pseudotaktowa	!
0D	-na	1.F	ex-	0f	-O-	0.r	.
.	.	2G/	-cel-	.	.	.	.
!LO:TX:t=P:problem=kreska pseudotaktowa	!	!LO:TX:t=P:problem=kreska pseudotaktowa	!	!LO:TX:t=P:problem=kreska pseudotaktowa	!	!	!
1C	in	1A	.	1e	-ſan-	.	.
=44-	=44-	=44-	=44-	=44-	=44-	=44-	=44-
0BB-	ex-	0D	-ſis,	0d	-na	0f	O-
!LO:TX:t=P:problem=kreska pseudotaktowa	!	!	!	!LO:TX:t=P:problem=kreska pseudotaktowa	!	!	!
1C	-cel-	1E	.	1c	.	1e	-ſan-
=45-	=45-	=45-	=45-	=45-	=45-	=45-	=45-
1.D	-ſis,	0F	.	1.A	in	0d	-na
2E/	.	.	.	2G/	ex-	.	.
*	*	*	*	*	*	*custos:d	*
!LO:TX:t=P:problem=kreska pseudotaktowa	!	!LO:TX:t=P:problem=kreska pseudotaktowa	!	!	!	!LO:TX:t=P:problem=kreska pseudotaktowa	!
1F	.	1r	.	2A/	-cel-	1c	in
!	!	!	!	!LO:TX:t=P:problem=kreska pseudotaktowa	!	!	!
.	.	.	.	2F/	-ſis	.	.
!	!	!	!	!	!	!LO:LB:g=original	!
=46-	=46-	=46-	=46-	=46-	=46-	=46-	=46-
*	*	*	*	*	*	*xywh-#22:5692,1215,4368,1072	*
*	*	*	*ij	*	*	*	*
1.BB-	.	0B-	O-	1.f	.	1.d	ex-
*	*	*	*	*2\right	*	*	*
2C/	.	.	.	2e\	.	2e\	-cel-
*	*	*custos:G	*	*	*	*	*
!LO:TX:t=P:problem=kreska pseudotaktowa	!	!LO:TX:t=P:problem=kreska pseudotaktowa	!	!	!	!LO:TX:t=P:problem=kreska pseudotaktowa	!
1D	.	1A	-ſan-	2d\	.	1f	-ſis,
!	!	!	!	!LO:TX:t=P:problem=kreska pseudotaktowa	!	!	!
.	.	.	.	2c/	.	.	.
!	!	!LO:PB:g=original	!	!	!	!	!
=47-	=47-	=47-	=47-	=47-	=47-	=47-	=47-
*	*	*xywh-#408:5750,517,4440,978	*	*	*	*	*
*	*	*lig	*	*	*	*	*
1.GG	.	1G	-na	1.B-	.	0g	.
.	.	1.B-	.	.	.	.	.
2AA/	.	.	.	2c/	.	.	.
*	*	*	*	*custos:B	*	*	*
!	!	!	!	!LO:TX:t=P:problem=kreska pseudotaktowa	!	!LO:TX:t=P:problem=kreska pseudotaktowa	!
2BB-/	.	.	.	1d	.	1f	.
*	*	*Xlig	*	*	*	*	*
*custos:D	*	*	*	*	*	*	*
!LO:TX:t=P:problem=kreska pseudotaktowa	!	!LO:TX:t=P:problem=kreska pseudotaktowa	!	!	!	!	!
2C/	.	2A/	.	.	.	.	.
!LO:PB:g=original	!	!	!	!LO:PB:g=original	!	!	!
=48-	=48-	=48-	=48-	=48-	=48-	=48-	=48-
*xywh-#581:987,599,4459,845	*	*	*	*xywh-#211:5768,620,4400,808	*	*	*
*col	*	*	*	*col	*	*	*
1D	.	2G/	.	1B-	.	1.f	.
.	.	2F/	.	.	.	.	.
!	!	!LO:TX:t=P:problem=kreska pseudotaktowa	!	!	!	!	!
0C	.	0G	in	0c	.	.	.
.	.	.	.	.	.	4e\	.
.	.	.	.	.	.	4d\	.
!	!	!	!	!	!	!LO:TX:t=P:problem=kreska pseudotaktowa	!
.	.	.	.	.	.	1e	.
*Xcol	*	*	*	*Xcol	*	*	*
=49-	=49-	=49-	=49-	=49-	=49-	=49-	=49-
!	!	!	!	!LO:TX:t=P:problem=kreska pseudotaktowa	!	!	!
0.FF	.	1.F	ex-	0.A	.	0f	.
.	.	2E/	.	.	.	.	.
.	.	2D/	.	.	.	1r	.
!	!	!LO:TX:t=P:problem=kreska pseudotaktowa	!	!	!	!	!
.	.	2C/	.	.	.	.	.
=50-	=50-	=50-	=50-	=50-	=50-	=50-	=50-
*	*	*	*	*	*	*	*ij
!LO:TX:t=P:problem=kreska pseudotaktowa	!	!	!	!	!	!	!
0.BB-	.	1.D	-cel-	1r	.	0f	O-
!	!	!	!	!LO:TX:t=P:problem=kreska pseudotaktowa	!	!	!
.	.	.	.	0B-	o-	.	.
.	.	2E/	.	.	.	.	.
!	!	!LO:TX:t=P:problem=kreska pseudotaktowa	!	!	!	!LO:TX:t=P:problem=kreska pseudotaktowa	!
.	.	1F	.	.	.	1d	-ſan-
=51-	=51-	=51-	=51-	=51-	=51-	=51-	=51-
00.r	.	0C	-ſis	1G	-ſan-	0e	-na
*	*	*	*Xij	*	*	*	*
!	!	!	!	!LO:TX:t=P:problem=kreska pseudotaktowa	!	!	!
.	.	.	.	0A	-na	.	.
!	!	!LO:TX:t=P:problem=kreska pseudotaktowa	!	!	!	!LO:TX:t=P:problem=kreska pseudotaktowa	!
.	.	1r	.	.	.	1c	in
=52-	=52-	=52-	=52-	=52-	=52-	=52-	=52-
.	.	0.r	.	1F	.	1.d	ex-
.	.	.	.	1G	in	.	.
.	.	.	.	.	.	2c\	ex-
!	!	!	!	!LO:TX:t=P::problem=kreska pseudotaktowa&colon;między nutą a kropką	!	!	!
.	.	.	.	1.B-	ex-	2d\	.
!	!	!	!	!	!	!LO:TX:t=P:problem=kreska pseudotaktowa	!
.	.	.	.	.	.	2e\	.
=53-	=53-	=53-	=53-	=53-	=53-	=53-	=53-
!LO:TX:t=P:problem=kreska pseudotaktowa	!	!	!	!	!	!	!
0.r	.	1r	.	.	.	1.f	.
.	.	.	.	2A/	-cel-	.	.
.	.	1r	.	2F/	.	.	.
.	.	.	.	2G/	.	2e\	.
*	*	*	*	*	*	*custos:f	*
!	!	!LO:TX:t=P:problem=kreska pseudotaktowa	!	!LO:TX:t=P::problem=kreska pseudotaktowa&colon;między nutą a kropką	!	!	!
.	.	1c	O-	1.A	.	1e	-cel-
!	!	!	!	!	!	!LO:LB:g=original	!
=54-	=54-	=54-	=54-	=54-	=54-	=54-	=54-
*	*	*	*	*	*	*xywh-#22:5709,2024,4453,960	*
0F	O-	1c	-ſan-	.	.	0.f	-ſis
*	*	*	*	*	*	*	*Xij
.	.	.	.	2B-/	.	.	.
.	.	1A	-na	1c	.	.	.
!	!	!	!	!LO:TX:t=P:problem=kreska pseudotaktowa	!	!	!
1D	-ſan-	0B-	in	1d	.	.	.
=55-	=55-	=55-	=55-	=55-	=55-	=55-	=55-
0E-X	-na	.	.	1G	.	00.r	.
*	*	*custos:A	*	*	*	*	*
.	.	1G	ex-	1B-	.	.	.
*	*	*	*	*custos:A	*	*	*
*	*	*xywh-#408:5774,1296,4187,911	*	*	*	*	*
!LO:TX:t=P:problem=kreska pseudotaktowa	!	!LO:LB:g=original	!	!LO:TX:t=P:problem=kreska pseudotaktowa	!	!	!
1C	in	1.A	-cel-	1c	.	.	.
!	!	!	!	!LO:LB:g=original	!	!	!
=56-	=56-	=56-	=56-	=56-	=56-	=56-	=56-
*	*	*	*	*xywh-#211:5843,1365,4140,782	*	*	*
1D	ex-	.	.	1A	.	.	.
.	.	2F/	-ſis,	.	.	.	.
!	!	!LO:TX:t=P:problem=kreska pseudotaktowa	!	!	!	!	!
2BB-/	-cel-	0B-	.	0d	.	.	.
2C/	-ſis,	.	.	.	.	.	.
2D/	.	.	.	.	.	.	.
!LO:TX:t=P:problem=kreska pseudotaktowa	!	!	!	!	!	!	!
2Eny/	.	.	.	.	.	.	.
=57-	=57-	=57-	=57-	=57-	=57-	=57-	=57-
*	*	*col	*	*	*	*	*
!	!	!	!	!	!	!LO:TX:t=P:problem=kreska pseudotaktowa	!
1.F	.	1A	.	1c	.	0.r	.
!	!	!	!	!LO:TX:t=P:problem=kreska pseudotaktowa	!	!	!
.	.	0G	.	0B-	.	.	.
4E\	.	.	.	.	.	.	.
4D\	.	.	.	.	.	.	.
!LO:TX:t=P:problem=kreska pseudotaktowa	!	!	!	!	!	!	!
1E	.	.	.	.	.	.	.
*	*	*Xcol	*	*	*	*	*
=58-	=58-	=58-	=58-	=58-	=58-	=58-	=58-
0F	.	0F	.	1.A	.	0f	o-
.	.	.	.	2G/	-ſis	.	.
*custos:C	*	*	*	*	*	*	*
!	!	!LO:TX:t=P:problem=kreska pseudotaktowa	!	!LO:TX:t=P:problem=kreska pseudotaktowa	!	!	!
1BB-	.	1r	.	1F	.	1d	-ſan-
!LO:LB:g=original	!	!	!	!	!	!	!
=59-	=59-	=59-	=59-	=59-	=59-	=59-	=59-
*xywh-#581:1066,1310,4459,901	*	*	*	*	*	*	*
*	*	*	*	*	*ij	*	*
0C	in	0G	in	0c	o-	0e	-na
!LO:TX:t=P:problem=kreska pseudotaktowa	!	!LO:TX:t=P:problem=kreska pseudotaktowa	!	!LO:TX:t=P:problem=kreska pseudotaktowa	!	!LO:TX:t=P:problem=kreska pseudotaktowa	!
1AA	ex-	1A	.	1c	-ſan-	1c	in
=60-	=60-	=60-	=60-	=60-	=60-	=60-	=60-
1.BB-	-cel-	1F	ex-	1B-	-na	1.d	.
.	.	1.B-	-cel-	1.d	in	.	.
2AA/	-ſis,	.	.	.	.	2c\	ex-
2BB-/	.	.	.	.	.	2d\	-cel-
!LO:TX:t=P:problem=kreska pseudotaktowa	!	!LO:TX:t=P:problem=kreska pseudotaktowa	!	!LO:TX:t=P:problem=kreska pseudotaktowa	!	!	!
2C/	.	2A/	-ſis;	2c/	.	2e\	-ſis;
=61-	=61-	=61-	=61-	=61-	=61-	=61-	=61-
*col	*	*	*	*	*	*	*
1D	.	2G/	.	2B-/	.	1.f	.
.	.	2F/	.	2A/	.	.	.
0C	.	0G	.	1.c	ex-	.	.
.	.	.	.	.	.	4e\	.
.	.	.	.	.	.	4d\	.
.	.	.	.	.	.	1e	.
!	!	!	!	!LO:TX:t=P:problem=kreska pseudotaktowa	!	!	!
.	.	.	.	2B-/	.	.	.
*Xcol	*	*	*	*	*	*	*
=62-	=62-	=62-	=62-	=62-	=62-	=62-	=62-
!LO:TX:b:t=Benedictus non\nloqui poteſt,	!	!	!	!	!	!	!
!LO:TX:b:i:t=Vide infine\nBenedict(us)	!	!	!	!	!	!LO:TX:b:i:t=Benedictus Vide\nceſ<..> infra Tenor\nut eſt in alt(us).	!
[0.FFl;	.	[0.Fl;	.	2A/	.	[0.f;l	.
.	.	.	.	2G/	.	.	.
.	.	.	.	1.A	-cel-	.	.
.	.	.	.	2B-/	.	.	.
=63-	=63-	=63-	=63-	=63-	=63-	=63-	=63-
0.FF]	.	0.F]	.	0.cl;<	-ſis	0.f]	.
*	*	*	*	*	*Xij	*	*
!	!	!LO:LB:g=original	!	!	!	!LO:LB:g=original	!
=64||	=64||	=64||	=64||	=64||	=64||	=64||	=64||
*	*	*xywh-#408:5802,2050,4292,921	*	*xywh-#211:5837,1988,4272,879	*	*xywh-#22:699,3189,4595,935	*
*	*	*	*	*	*	*clefC4	*
*	*	*M2/1	*	*M2/1	*	*M2/1	*
*	*	*met(C|)	*	*met(C|)	*	*met(C)	*
!	!	!LO:TX:t=P:problem=kreska pseudotaktowa	!	!	!	!	!
!	!	!LO:TX:a:t=Dvo	!	!LO:TX:a:t=&colon;Dvo&colon;	!	!LO:TX:a:i:t=1697.\n24 9bris	!
0ryy	.	0r	.	1.c	Be-	2F/	Be-
.	.	.	.	.	.	2F/	-ne-
.	.	.	.	.	.	2A/	-dic-
!	!	!	!	!LO:TX:t=P:problem=kreska pseudotaktowa	!	!	!
.	.	.	.	2c/	-ne-	1F/	-t(us)
=65-	=65-	=65-	=65-	=65-	=65-	=65-	=65-
0ryy	.	1.c	Be-	2A/	-dic-	.	.
.	.	.	.	2F/	-tus	4A\	qui
.	.	.	.	.	.	4B-\	.
.	.	.	.	2.A/	qui	4c\	ve-
.	.	.	.	.	.	4B-\	.
*	*	*2\right	*	*	*	*	*
!	!	!LO:TX:t=P:problem=kreska pseudotaktowa	!	!	!	!	!
.	.	2c\	-ne-	.	.	4A\	.
!	!	!	!	!LO:TX:t=P:problem=kreska pseudotaktowa	!	!	!
.	.	.	.	4B-/	.	4G\	.
=66-	=66-	=66-	=66-	=66-	=66-	=66-	=66-
0ryy	.	2A/	-dic-	4c/	.	2F/	-nit
.	.	.	.	4d\	.	.	.
!	!	!LO:TX:t=P:problem=kreska pseudotaktowa	!	!	!	!	!
.	.	2F/	-tus	2.c/	.	1c	be-
.	.	2.A/	.	.	.	.	.
.	.	.	.	4B-/	.	.	.
*	*	*	*	*	*	*2\left	*
.	.	.	.	4A/	.	2c\	-ne-
!	!	!	!	!LO:TX:t=P:problem=kreska pseudotaktowa	!	!	!
.	.	4B-\	qui	4G/	.	.	.
=67-	=67-	=67-	=67-	=67-	=67-	=67-	=67-
0ryy	.	4c\	.	2.F/	.	2A/	-dic-
.	.	4d\	.	.	.	.	.
!	!	!LO:TX:t=P::problem=kreska pseudotaktowa&colon;między nutą a kropką	!	!	!	!	!
.	.	2.c\	.	.	.	2F/	-t(us)
!	!	!	!	!LO:TX:t=P:problem=kreska pseudotaktowa	!	!	!
.	.	.	.	4G/	.	.	.
.	.	.	.	4A/	.	2.A/	qui
.	.	4B-\	.	4B-/	.	.	.
.	.	4A/	.	2.c/	.	.	.
!	!	!LO:TX:t=P:problem=kreska pseudotaktowa	!	!	!	!	!
.	.	4G/	.	.	.	4B-\	.
=68-	=68-	=68-	=68-	=68-	=68-	=68-	=68-
0ryy	.	4A/	.	.	.	4c\	ve-
.	.	4B-\	.	4d\	.	8B-\L	.
.	.	.	.	.	.	8A\J	.
.	.	4c\	.	4e\	.	4G\	.
*	*	*	*	*custos:g	*	*	*
!	!	!LO:TX:t=P:problem=kreska pseudotaktowa	!	!	!	!	!
.	.	4A/	.	4f\	.	4A\	.
*	*	*	*	*xywh-#211:5791,2747,4243,833	*	*	*
!	!	!	!	!LO:LB:g=original	!	!	!
.	.	4B-\	.	2g\	.	4B-\	.
.	.	4A/	ve-	.	.	4c\	.
.	.	4G/	.	2.f\	.	2.d\	.
.	.	4F/	-nit,	.	.	.	.
=69-	=69-	=69-	=69-	=69-	=69-	=69-	=69-
*	*	*custos:F	*	*	*	*	*
!	!	!LO:TX:t=P:problem=kreska pseudotaktowa	!	!	!	!	!
0ryy	.	1G	.	.	.	.	.
.	.	.	.	4e\	ue-	4c\	.
.	.	.	.	2e\	-nit,	4B-\	.
.	.	.	.	.	.	4c\	.
*	*	*xywh-#408:5754,2795,4306,868	*	*	*	*	*
!	!	!LO:LB:g=original	!	!LO:TX:t=P:problem=kreska pseudotaktowa	!	!	!
.	.	1F	.	0f	.	2A/	-nit
.	.	.	.	.	.	2B-\	in
=70-	=70-	=70-	=70-	=70-	=70-	=70-	=70-
0ryy	.	2r	.	.	.	2A/	no-
.	.	1B-	in	.	.	4F/	.
.	.	.	.	.	.	2B-\	-mi-
.	.	.	.	2r	.	.	.
.	.	.	.	.	.	8A\	-ne
.	.	.	.	.	.	8G/	.
!	!	!LO:TX:t=P:problem=kreska pseudotaktowa	!	!	!	!	!
.	.	2B-\	no-	1.f\	in	4A\	.
.	.	.	.	.	.	4B-\	.
=71-	=71-	=71-	=71-	=71-	=71-	=71-	=71-
0ryy	.	2A/	-mi-	.	.	2c\	.
.	.	2F/	.	.	.	2.A/	do-
!	!	!	!	!LO:TX:t=P:problem=kreska pseudotaktowa	!	!	!
.	.	2.c\	-ne	2e\	no-	.	.
.	.	.	.	.	.	8G/L	.
.	.	.	.	.	.	8F/J	.
.	.	.	.	2c/	.	4G/	.
.	.	8B-\L	do-	.	.	4A/	.
.	.	8A\J	.	.	.	.	.
=72-	=72-	=72-	=72-	=72-	=72-	=72-	=72-
!	!	!LO:TX:t=P:problem=kreska pseudotaktowa	!	!	!	!	!
0ryy	.	2G/	-mi-	2.g\	-mi-	2.B-\	.
.	.	2.B-\	-ni,	.	.	.	.
.	.	.	.	8f\L	-ne	4c\yy	.
.	.	.	.	8e\J	.	.	.
!	!	!	!	!LO:TX:t=P:problem=kreska pseudotaktowa	!	!	!
.	.	.	.	2d/	.	2d\yy	.
.	.	4A/	.	.	.	.	.
*	*	*	*	*	*	*xywh-#22:5379,3418,4918,767	*
!	!	!LO:TX:t=P:problem=kreska pseudotaktowa	!	!	!	!	!
.	.	2.F/	.	2.f\	.	2c\	.
=73-	=73-	=73-	=73-	=73-	=73-	=73-	=73-
0ryy	.	.	.	.	.	2.F/	.
.	.	4G/	.	4e\	do-	.	.
.	.	4A/	.	2.c/	.	.	.
!	!	!LO:TX:t=P:problem=kreska pseudotaktowa	!	!	!	!	!
.	.	4B-\	.	.	.	4G/	.
.	.	2c\	.	.	.	4A/	.
!	!	!	!	!LO:TX:t=P:problem=kreska pseudotaktowa	!	!	!
.	.	.	.	4d\	.	4B-/	.
.	.	2.C/	.	4e\	.	2c\	.
.	.	.	.	4f\	.	.	.
=74-	=74-	=74-	=74-	=74-	=74-	=74-	=74-
*	*	*	*	*custos:G	*	*	*
!	!	!	!	!LO:TX:t=P:problem=kreska pseudotaktowa	!	!	!
0ryy	.	.	.	2g\	.	2.C/	.
.	.	4D/	.	.	.	.	.
*	*	*	*	*xywh-#212:1172,462,4230,959	*	*	*
!	!	!	!	!LO:PB:g=original	!	!	!
.	.	4E/	.	2.G/	.	.	.
*	*	*custos:G	*	*	*	*	*
*	*	*xywh-#409:1206,572,4227,911	*	*	*	*	*
!	!	!LO:TX:t=P:problem=kreska pseudotaktowa	!	!	!	!	!
.	.	4F/	.	.	.	4D/	.
!	!	!LO:PB:g=original	!	!	!	!	!
.	.	4G/	.	.	.	2.E/	.
!	!	!	!	!LO:TX:t=P:problem=kreska pseudotaktowa	!	!	!
.	.	4F/	.	4A/	.	.	.
.	.	4G/	.	4B-/	.	.	.
!	!	!LO:TX:t=P:problem=kreska pseudotaktowa	!	!	!	!	!
.	.	4A/	.	4c/	.	4F/	.
=75-	=75-	=75-	=75-	=75-	=75-	=75-	=75-
0ryy	.	2.B-\	.	4d\	.	2.G/	.
!	!	!	!	!LO:TX:t=P:problem=kreska pseudotaktowa	!	!	!
.	.	.	.	4e\	.	.	.
.	.	.	.	2f\	.	.	.
.	.	4A/	.	.	.	4A\	.
.	.	2G/	.	2e\	.	4B-\	.
.	.	.	.	.	.	4c\	.
!	!	!LO:TX:t=P:problem=kreska pseudotaktowa	!	!	!	!	!
.	.	2F/	.	2.d/	.	2.B-\	.
=76-	=76-	=76-	=76-	=76-	=76-	=76-	=76-
0ryy	.	2E/	.	.	.	.	.
!	!	!	!	!LO:TX:t=P:problem=kreska pseudotaktowa	!	!	!
.	.	.	.	4c/	.	4A\	.
.	.	2F/	.	2.c/	-mi-	1A	.
.	.	1D	.	.	.	.	.
.	.	.	.	4B-/	-ni	.	.
.	.	.	.	2B-/	.	4G/	.
.	.	.	.	.	.	4F/	.
=77-	=77-	=77-	=77-	=77-	=77-	=77-	=77-
!	!	!LO:TX:t=P:problem=kreska pseudotaktowa	!	!LO:TX:t=P:problem=kreska pseudotaktowa	!	!	!
0ryy	.	1C	.	0c	.	2G/	.
.	.	.	.	.	.	2G/	-mi-
.	.	2r	.	.	.	2F/	-ni
.	.	1F/	in	.	.	2A/	-in
=78-	=78-	=78-	=78-	=78-	=78-	=78-	=78-
0ryy	.	.	.	2r	.	2c\	no-
*	*	*	*	*	*ij	*	*
!	!	!LO:TX:t=P:problem=kreska pseudotaktowa	!	!	!	!	!
.	.	2F/	.	1c	in	2A/	-mi-
.	.	2E/	no-	.	.	2G/	-ne
*	*	*	*	*	*	*	*ij
!	!	!	!	!LO:TX:t=P:problem=kreska pseudotaktowa	!	!	!
.	.	2C/	-mi-	2c/	no-	2A/	in
=79-	=79-	=79-	=79-	=79-	=79-	=79-	=79-
0ryy	.	2.F/	-ne	2A/	-mi-	2c\	no-
*	*	*	*	*custos:c	*	*	*
!	!	!	!	!LO:TX:t=P:problem=kreska pseudotaktowa	!	!	!
.	.	.	.	2F/	-ne	2c\	-mi-
!	!	!LO:TX:t=P:problem=kreska pseudotaktowa	!	!	!	!	!
.	.	4G/	do:	.	.	.	.
*	*	*	*	*xywh-#212:1234,1153,4213,993	*	*	*
!	!	!	!	!LO:LB:g=original	!	!	!
.	.	4A/	.	2.c/	do-	2.A\	-ne
*	*	*	*	*	*	*	*Xij
*	*	*custos:c	*	*	*	*	*
.	.	4B-/	.	.	.	.	.
*	*	*xywh-#409:1212,1337,4227,883	*	*	*	*	*
!	!	!LO:LB:g=original	!	!	!	!	!
.	.	2.c\	do-	.	.	.	.
!	!	!	!	!LO:TX:t=P:problem=kreska pseudotaktowa	!	!	!
.	.	.	.	4d\	.	4B-\	.
=80-	=80-	=80-	=80-	=80-	=80-	=80-	=80-
0ryy	.	.	.	4e\	.	4c\	.
.	.	4B-\	-mi-	4f\	.	4d\	.
*	*	*lig	*	*	*	*	*
.	.	1G	-ni;	2.g\	.	2.B-\	Do
.	.	.	.	4f\	.	4A\	.
.	.	1B-\	.	4d\	.	1G/	.
.	.	.	.	4e\	.	.	.
!	!	!	!	!LO:TX:t=P:problem=kreska pseudotaktowa	!	!	!
*	*	*Xlig	*	*	*	*	*
=81-	=81-	=81-	=81-	=81-	=81-	=81-	=81-
0ryy	.	.	.	1f	-mi-	.	.
!	!	!LO:TX:t=P:problem=kreska pseudotaktowa	!	!	!	!	!
.	.	2A/	.	.	.	4A\	.
!	!	!	!	!	!	!LO:TX:t=P:problem=kreska pseudotaktowa	!
.	.	.	.	.	.	4B-\	.
.	.	2G/	.	2e\	.	4c\	.
.	.	.	.	.	.	2B-\	.
!	!	!LO:TX:t=P::problem=kreska pseudotaktowa&colon;między nutą a kropką	!	!LO:TX:t=P:problem=kreska pseudotaktowa	!	!	!
.	.	2.F/	.	2d\	.	.	.
!	!	!	!	!	!	!LO:TX:t=P:problem=przekreślona synkopowana wartość	!
.	.	.	.	.	.	2A\	.
=82-	=82-	=82-	=82-	=82-	=82-	=82-	=82-
0ryy	.	.	.	2.c/	.	.	.
.	.	4E/	.	.	.	4G\	.
.	.	4C/	.	.	.	4A\	.
!	!	!LO:TX:t=P:problem=kreska pseudotaktowa	!	!	!	!LO:TX:t=P:problem=kreska pseudotaktowa	!
.	.	4D/	.	4B-/	.	4B-\	.
.	.	2E/	.	4G/	.	2c\	.
.	.	.	.	4A/	.	.	.
!	!	!LO:TX:t=P::problem=kreska pseudotaktowa&colon;między nutą a kropką	!	!LO:TX:t=P:problem=kreska pseudotaktowa	!	!	!
.	.	2.D/	.	2B-/	-ni	4G/	.
*	*	*	*	*	*Xij	*	*
.	.	.	.	.	.	4A/	.
=83-	=83-	=83-	=83-	=83-	=83-	=83-	=83-
0ryy	.	.	.	2.A/	do-	4B-/	.
.	.	4C/	.	.	.	4c\	.
*	*	*	*	*	*	*custos:c	*
!	!	!	!	!	!	!LO:TX:a:t=vi	!
!	!	!LO:TX:t=P::problem=kreska pseudotaktowa&colon;między nutą a kropką	!	!	!	!	!
.	.	2.F/	.	.	.	2d\	.
.	.	.	.	8G/L	-mi-	.	.
.	.	.	.	8F/J	.	.	.
*	*	*	*	*	*	*xywh-#22:9502,2744,721,721	*
!	!	!	!	!	!	!LO:LB:g=original	!
!	!	!	!	!	!	!LO:TX:a:t=de	!
.	.	.	.	1G	-ni	4c\	.
.	.	4E/	.	.	.	4B-\	.
.	.	2E/	.	.	.	4A\	.
.	.	.	.	.	.	4G\	.
=84-	=84-	=84-	=84-	=84-	=84-	=84-	=84-
*	*	*custos:c	*	*custos:f	*	*	*
0ryy	.	0Fl;	.	0Fl;	.	0Al;;	.
==	==	==	==	==	==	==	==
*-	*-	*-	*-	*-	*-	*-	*-
!!!system-decoration: [(*)]
!!!RDF**kern: > = above
!!!RDF**kern: < = below
!!!RDF**kern: l = terminal long
!!!ENC: Mateusz Solarz
!!!END: 2022-02-02
!!!ENC: Andrzej Kubiczek
!!!END: 2022-02-25
!!!ENC-iiif: Antoni Szymański
!!!END-iiif: 2022-09-01
!!!YEC: Copyright 2022 Narodowy Instytut Fryderyka Chopina (https://polishscores.org)
!!!YEM: Licence CC BY 4.0 (https://creativecommons.org/licenses/by/4.0)
!!!IIIF: https://repozytorium.nifc.pl/islandora/object/pl-kk%3A1/datastream/IIIF/view
